X: 38218
T: Spy Wednesday
R: reel
M: 4/4
K: Gmajor
(3DEF|:GBAG FDD2|GABd c2BA|GB (3BBB GB (3BBB|ABAG FDEF|
GBAG FD (3DDD|GABd c2Bc|dB (3BBB GBdg|1 ecAF G2 (3DEF:|2 ecAF G2ef||
|:gfge dB (3BBB|dBAB dBB2|gfge dBBd|ecAG FAD2|
gfge dB (3BBB|dBAB dBBA|GABd cdeg|1 ecAF G2ef:|2 ecAF [G4G,4]||

